src/assets/skills_css.svg

<?xml version="1.0" encoding="utf-8"?><!-- Uploaded to: SVG Repo, www.svgrepo.com, Generator: SVG Repo Mixer Tools -->
<svg width="800px" height="800px" viewBox="0 0 16 16" fill="none" xmlns="http://www.w3.org/2000/svg">
<path fill-rule="nonzero" clip-rule="nonzero" d="M3 1.60001C2.86193 1.60001 2.75 1.71193 2.75 1.85001V11.4003C2.75 11.4896 2.79769 11.5722 2.87509 11.6168L7.73381 14.4194C7.80942 14.463 7.90231 14.464 7.97886 14.4221L13.1201 11.6048C13.2002 11.5609 13.25 11.4769 13.25 11.3856V1.85001C13.25 1.71193 13.1381 1.60001 13 1.60001H3ZM1.25 1.85001C1.25 0.883508 2.0335 0.100006 3 0.100006H13C13.9665 0.100006 14.75 0.883509 14.75 1.85001V11.3856C14.75 12.0248 14.4015 12.6131 13.841 12.9203L8.69968 15.7375C8.16383 16.0311 7.51363 16.024 6.98434 15.7187L2.12562 12.9162C1.58382 12.6037 1.25 12.0258 1.25 11.4003V1.85001ZM5 4.35001C5 3.93579 5.33579 3.60001 5.75 3.60001H10.3654C10.7796 3.60001 11.1154 3.93579 11.1154 4.35001V10.4462C11.1154 10.7302 10.9549 10.9899 10.7008 11.117L8.3931 12.2708C8.18196 12.3764 7.93343 12.3764 7.72228 12.2708L5.41459 11.117C5.1605 10.9899 5 10.7302 5 10.4462V9.86924C5 9.45502 5.33579 9.11924 5.75 9.11924C6.16421 9.11924 6.5 9.45502 6.5 9.86924V9.98263L8.05769 10.7615L9.61539 9.98263V8.31154H7C6.58579 8.31154 6.25 7.97576 6.25 7.56154C6.25 7.14733 6.58579 6.81154 7 6.81154H9.61539V5.10001H5.75C5.33579 5.10001 5 4.76422 5 4.35001Z" fill="#3fbac2"/>
</svg>

<!-- Uploaded to: SVG Repo, www.svgrepo.com, Generator: SVG Repo Mixer Tools -->
<svg xmlns="http://www.w3.org/2000/svg" fill="none" viewBox="0 0 16 16">
  <path fill="#3fbac2" d="M3 1.6a.25.25 0 0 0-.25.25v9.55c0 .09.048.172.125.217l4.859 2.802a.25.25 0 0 0 .245.003l5.141-2.817a.25.25 0 0 0 .13-.22V1.85A.25.25 0 0 0 13 1.6H3Zm-1.75.25C1.25.884 2.034.1 3 .1h10c.966 0 1.75.784 1.75 1.75v9.536a1.75 1.75 0 0 1-.909 1.534L8.7 15.738a1.75 1.75 0 0 1-1.716-.02l-4.858-2.802A1.75 1.75 0 0 1 1.25 11.4V1.85ZM5 4.35a.75.75 0 0 1 .75-.75h4.615a.75.75 0 0 1 .75.75v6.096a.75.75 0 0 1-.414.671l-2.308 1.154a.75.75 0 0 1-.67 0l-2.308-1.154a.75.75 0 0 1-.415-.67v-.578a.75.75 0 1 1 1.5 0v.114l1.558.778 1.557-.778V8.312H7a.75.75 0 1 1 0-1.5h2.615V5.1H5.75A.75.75 0 0 1 5 4.35Z"/>
</svg>
